src/svg-light/zoom-in.svg

<svg xmlns="http://www.w3.org/2000/svg" id="svg2" width="32" height="32" version="1.1">
 <defs id="defs4">
  <filter id="filter859" style="color-interpolation-filters:sRGB" width="1.096" height="1.096" x="-.05" y="-.05">
   <feGaussianBlur id="feGaussianBlur861" stdDeviation=".3"/>
  </filter>
  <filter id="filter891" style="color-interpolation-filters:sRGB" width="1.1" height="1.093" x="-.05" y="-.05">
   <feGaussianBlur id="feGaussianBlur893" stdDeviation=".281"/>
  </filter>
 </defs>
 <path id="path863" style="color:#000000;font-style:normal;font-variant:normal;font-weight:normal;font-stretch:normal;font-size:medium;line-height:normal;font-family:sans-serif;font-variant-ligatures:normal;font-variant-position:normal;font-variant-caps:normal;font-variant-numeric:normal;font-variant-alternates:normal;font-feature-settings:normal;text-indent:0;text-align:start;text-decoration:none;text-decoration-line:none;text-decoration-style:solid;text-decoration-color:#000000;letter-spacing:normal;word-spacing:normal;text-transform:none;writing-mode:lr-tb;direction:ltr;text-orientation:mixed;dominant-baseline:auto;baseline-shift:baseline;text-anchor:start;white-space:normal;shape-padding:0;clip-rule:nonzero;display:inline;overflow:visible;visibility:visible;opacity:0.3;isolation:auto;mix-blend-mode:normal;color-interpolation:sRGB;color-interpolation-filters:linearRGB;solid-color:#000000;solid-opacity:1;vector-effect:none;fill:#000000;fill-opacity:1;fill-rule:nonzero;stroke:none;stroke-width:4;stroke-linecap:round;stroke-linejoin:miter;stroke-miterlimit:4;stroke-dasharray:none;stroke-dashoffset:0;stroke-opacity:1;filter:url(#filter891);color-rendering:auto;image-rendering:auto;shape-rendering:auto;text-rendering:auto;enable-background:accumulate" d="m 15.380859,13.9821 a 2.0002,2.0002 0 0 0 -1.363281,3.3593 l 9.5,10.5 a 2.0002,2.0002 0 1 0 2.964844,-2.6836 l -9.5,-10.5 a 2.0002,2.0002 0 0 0 -1.601563,-0.6757 z"/>
 <path id="path829" style="fill:none;stroke:#795548;stroke-width:4;stroke-linecap:round;stroke-linejoin:miter;stroke-miterlimit:4;stroke-dasharray:none;stroke-opacity:1" d="M 25,26 15.5,15.5"/>
 <path id="path895" style="color:#000000;font-style:normal;font-variant:normal;font-weight:normal;font-stretch:normal;font-size:medium;line-height:normal;font-family:sans-serif;font-variant-ligatures:normal;font-variant-position:normal;font-variant-caps:normal;font-variant-numeric:normal;font-variant-alternates:normal;font-feature-settings:normal;text-indent:0;text-align:start;text-decoration:none;text-decoration-line:none;text-decoration-style:solid;text-decoration-color:#000000;letter-spacing:normal;word-spacing:normal;text-transform:none;writing-mode:lr-tb;direction:ltr;text-orientation:mixed;dominant-baseline:auto;baseline-shift:baseline;text-anchor:start;white-space:normal;shape-padding:0;clip-rule:nonzero;display:inline;overflow:visible;visibility:visible;opacity:0.05;isolation:auto;mix-blend-mode:normal;color-interpolation:sRGB;color-interpolation-filters:linearRGB;solid-color:#000000;solid-opacity:1;vector-effect:none;fill:#010101;fill-opacity:1;fill-rule:nonzero;stroke:none;stroke-width:4;stroke-linecap:round;stroke-linejoin:miter;stroke-miterlimit:4;stroke-dasharray:none;stroke-dashoffset:0;stroke-opacity:1;color-rendering:auto;image-rendering:auto;shape-rendering:auto;text-rendering:auto;enable-background:accumulate" d="m 15.380859,13.482422 a 2.0002,2.0002 0 0 0 -1.363281,3.359375 l 9.5,10.5 a 2.0002,2.0002 0 1 0 2.964844,-2.683594 l -9.5,-10.5 a 2.0002,2.0002 0 0 0 -1.601563,-0.675781 z m 0.05078,0.998047 c 0.305249,-0.015 0.59878,0.10849 0.800781,0.33789 a 1.0001,1.0001 0 0 0 0.0078,0.0098 l 9.5,10.5 a 1.0001,1.0001 0 0 0 0.01953,0.01953 c 0.298606,0.3128 0.334836,0.533366 0.3125,0.759766 -0.02234,0.2263 -0.15408,0.482728 -0.365235,0.673828 -0.211155,0.1911 -0.479546,0.297075 -0.707031,0.296875 -0.227485,-3e-4 -0.441008,-0.05892 -0.722656,-0.386719 a 1.0001,1.0001 0 0 0 -0.01758,-0.02148 l -9.5,-10.5 a 1.0001,1.0001 0 0 0 -0.0098,-0.0098 c -0.626479,-0.6741 -0.237405,-1.632787 0.681641,-1.679687 z"/>
 <circle id="circle833" style="opacity:0.3;fill:#000000;fill-opacity:1;stroke:none;stroke-width:2.14285707;stroke-linecap:round;stroke-linejoin:round;stroke-miterlimit:4;stroke-dasharray:none;stroke-dashoffset:0;stroke-opacity:1;paint-order:normal;filter:url(#filter859)" cx="15.5" cy="16" r="7.5"/>
 <circle id="circle834" style="opacity:0.25;fill:none;fill-opacity:1;stroke:#000000;stroke-width:1;stroke-linecap:round;stroke-linejoin:round;stroke-miterlimit:4;stroke-dasharray:none;stroke-dashoffset:0;stroke-opacity:1;paint-order:normal" cx="15.5" cy="15.5" r="7.5"/>
 <circle id="path827" style="opacity:1;fill:#e4e4e4;fill-opacity:1;stroke:none;stroke-width:2.14285707;stroke-linecap:round;stroke-linejoin:round;stroke-miterlimit:4;stroke-dasharray:none;stroke-dashoffset:0;stroke-opacity:1;paint-order:normal" cx="15.5" cy="15.5" r="7.5"/>
 <circle id="circle831" style="opacity:1;fill:#4fc3f7;fill-opacity:1;stroke:none;stroke-width:1.57142854;stroke-linecap:round;stroke-linejoin:round;stroke-miterlimit:4;stroke-dasharray:none;stroke-dashoffset:0;stroke-opacity:1;paint-order:normal" cx="15.5" cy="15.5" r="5.5"/>
 <path id="rect5428" style="fill:#ffffff;fill-opacity:1;stroke:none" d="m 15,12 v 3 h -3 v 1 h 3 v 3 h 1 v -3 h 3 v -1 h -3 v -3 z"/>
</svg>

<svg xmlns="http://www.w3.org/2000/svg" id="svg2" width="32" height="32" version="1.1">
 <defs id="defs4">
  <filter id="filter859" style="color-interpolation-filters:sRGB" width="1.096" height="1.096" x="-.05" y="-.05">
   <feGaussianBlur id="feGaussianBlur861" stdDeviation=".3"/>
  </filter>
  <filter id="filter891" style="color-interpolation-filters:sRGB" width="1.1" height="1.093" x="-.05" y="-.05">
   <feGaussianBlur id="feGaussianBlur893" stdDeviation=".281"/>
  </filter>
 </defs>
 <g id="layer1" transform="translate(0,-1020.3622)">
  <path id="path863" style="color:#000000;font-style:normal;font-variant:normal;font-weight:normal;font-stretch:normal;font-size:medium;line-height:normal;font-family:sans-serif;font-variant-ligatures:normal;font-variant-position:normal;font-variant-caps:normal;font-variant-numeric:normal;font-variant-alternates:normal;font-feature-settings:normal;text-indent:0;text-align:start;text-decoration:none;text-decoration-line:none;text-decoration-style:solid;text-decoration-color:#000000;letter-spacing:normal;word-spacing:normal;text-transform:none;writing-mode:lr-tb;direction:ltr;text-orientation:mixed;dominant-baseline:auto;baseline-shift:baseline;text-anchor:start;white-space:normal;shape-padding:0;clip-rule:nonzero;display:inline;overflow:visible;visibility:visible;opacity:0.3;isolation:auto;mix-blend-mode:normal;color-interpolation:sRGB;color-interpolation-filters:linearRGB;solid-color:#000000;solid-opacity:1;vector-effect:none;fill:#000000;fill-opacity:1;fill-rule:nonzero;stroke:none;stroke-width:4;stroke-linecap:round;stroke-linejoin:miter;stroke-miterlimit:4;stroke-dasharray:none;stroke-dashoffset:0;stroke-opacity:1;color-rendering:auto;image-rendering:auto;shape-rendering:auto;text-rendering:auto;enable-background:accumulate;filter:url(#filter891)" d="m 15.380859,1034.3443 a 2.0002,2.0002 0 0 0 -1.363281,3.3593 l 9.5,10.5 a 2.0002,2.0002 0 1 0 2.964844,-2.6836 l -9.5,-10.5 a 2.0002,2.0002 0 0 0 -1.601563,-0.6757 z"/>
  <path id="path829" style="fill:none;stroke:#795548;stroke-width:4;stroke-linecap:round;stroke-linejoin:miter;stroke-opacity:1;stroke-miterlimit:4;stroke-dasharray:none" d="m 25,1046.3622 -9.5,-10.5"/>
  <path id="path895" style="color:#000000;font-style:normal;font-variant:normal;font-weight:normal;font-stretch:normal;font-size:medium;line-height:normal;font-family:sans-serif;font-variant-ligatures:normal;font-variant-position:normal;font-variant-caps:normal;font-variant-numeric:normal;font-variant-alternates:normal;font-feature-settings:normal;text-indent:0;text-align:start;text-decoration:none;text-decoration-line:none;text-decoration-style:solid;text-decoration-color:#000000;letter-spacing:normal;word-spacing:normal;text-transform:none;writing-mode:lr-tb;direction:ltr;text-orientation:mixed;dominant-baseline:auto;baseline-shift:baseline;text-anchor:start;white-space:normal;shape-padding:0;clip-rule:nonzero;display:inline;overflow:visible;visibility:visible;opacity:0.05;isolation:auto;mix-blend-mode:normal;color-interpolation:sRGB;color-interpolation-filters:linearRGB;solid-color:#000000;solid-opacity:1;vector-effect:none;fill:#010101;fill-opacity:1;fill-rule:nonzero;stroke:none;stroke-width:4;stroke-linecap:round;stroke-linejoin:miter;stroke-miterlimit:4;stroke-dasharray:none;stroke-dashoffset:0;stroke-opacity:1;color-rendering:auto;image-rendering:auto;shape-rendering:auto;text-rendering:auto;enable-background:accumulate" transform="translate(0,1020.3622)" d="M 15.380859 13.482422 A 2.0002 2.0002 0 0 0 14.017578 16.841797 L 23.517578 27.341797 A 2.0002 2.0002 0 1 0 26.482422 24.658203 L 16.982422 14.158203 A 2.0002 2.0002 0 0 0 15.380859 13.482422 z M 15.431641 14.480469 C 15.73689 14.465469 16.030421 14.588959 16.232422 14.818359 A 1.0001 1.0001 0 0 0 16.240234 14.828125 L 25.740234 25.328125 A 1.0001 1.0001 0 0 0 25.759766 25.347656 C 26.058372 25.660456 26.094602 25.881022 26.072266 26.107422 C 26.049926 26.333722 25.918186 26.59015 25.707031 26.78125 C 25.495876 26.97235 25.227485 27.078325 25 27.078125 C 24.772515 27.077825 24.558992 27.019206 24.277344 26.691406 A 1.0001 1.0001 0 0 0 24.259766 26.669922 L 14.759766 16.169922 A 1.0001 1.0001 0 0 0 14.75 16.160156 C 14.123521 15.486056 14.512595 14.527369 15.431641 14.480469 z"/>
  <circle id="circle833" style="opacity:0.3;fill:#000000;fill-opacity:1;stroke:none;stroke-width:2.14285707;stroke-linecap:round;stroke-linejoin:round;stroke-miterlimit:4;stroke-dasharray:none;stroke-dashoffset:0;stroke-opacity:1;paint-order:normal;filter:url(#filter859)" cx="15.5" cy="1036.362" r="7.5"/>
  <circle id="path827" style="opacity:1;fill:#e4e4e4;fill-opacity:1;stroke:none;stroke-width:2.14285707;stroke-linecap:round;stroke-linejoin:round;stroke-miterlimit:4;stroke-dasharray:none;stroke-dashoffset:0;stroke-opacity:1;paint-order:normal" cx="15.5" cy="1035.862" r="7.5"/>
  <circle id="circle831" style="opacity:1;fill:#4fc3f7;fill-opacity:1;stroke:none;stroke-width:1.57142854;stroke-linecap:round;stroke-linejoin:round;stroke-miterlimit:4;stroke-dasharray:none;stroke-dashoffset:0;stroke-opacity:1;paint-order:normal" cx="15.5" cy="1035.862" r="5.5"/>
  <path id="rect5428" style="fill:#ffffff;fill-opacity:1;stroke:none" d="m 15,1032.3622 v 3 h -3 v 1 h 3 v 3 h 1 v -3 h 3 v -1 h -3 v -3 z"/>
  <path id="circle904" style="opacity:0.05;fill:#010101;fill-opacity:1;stroke:none;stroke-width:2.14285707;stroke-linecap:round;stroke-linejoin:round;stroke-miterlimit:4;stroke-dasharray:none;stroke-dashoffset:0;stroke-opacity:1;paint-order:normal" transform="translate(0,1020.3622)" d="M 15.5 8 A 7.5 7.5 0 0 0 8 15.5 A 7.5 7.5 0 0 0 15.5 23 A 7.5 7.5 0 0 0 23 15.5 A 7.5 7.5 0 0 0 15.5 8 z M 15.5 9 A 6.5 6.5 0 0 1 22 15.5 A 6.5 6.5 0 0 1 15.5 22 A 6.5 6.5 0 0 1 9 15.5 A 6.5 6.5 0 0 1 15.5 9 z"/>
 </g>
</svg>
